X: 39848
T: This Day The Stag Must Die
R: jig
M: 6/8
K: Aminor
|:AcA AAA|BGG GEG|AcA AFA|dAB c2B|
AcA AAA|BGG GEG|ABc A2G|EGA A3:|
|:Add ded|dAB c2B|Add ded|dAB c2B|
Add ded|dAB c2B|ABc A2d|EGA A3:|

